X:385
T:Glen Caladh Castle 
C:Joe Buchanan's Scottish Tome - Page 338.2
I:338 2
C:P.M. J. MacLellan
R:March
Z:Carl Allison
L:1/8
M:2/4
K:D
A/>d/ | "D" f(a/>f/) d>c  | "G" (B/<d/)(g/>B/) "D" A(d/>c/) | "G" B(e/>f/) (g/<B/)(e/>d/) | "A" (ce) (eA/>d/)  |
"D" (f/>g/)(a/>f/) d(d/>c/) | "G" (B/<d/)(c/<e/) "D" A(d/>c/) | "G" B(G/>d/) (c/<a/)(g/>e/) | "D" {c}d2 {d}d2 :|
f/>g/ | "D" (a/>f/)(d/<f/) a(e/>f/) | "A7" (g/>e/)(c/>e/) g(a/>g/) | "G" (f/>d/)(A/>d/) (f/<a/)(g/>f/) | "E7" (e/>d/)(c/<d/) "A7" eg |
"D" (a/>g/)(f/>e/) (f/<a/)(d/>c/) | "G" (B/>d/)(g/>B/) "D" A(d/>c/) | "G" B(G/>d/) "A7" (c/<a/)(g/>e/) | "D" {c}d2 {d}d2 :|
a/>f/ | "D" d(A/>a/) f(d/>f/) | "D" (A/>d/)(f/>d/) (a/>f/)(e/>d/) | "A7" c(A/>a/) e(A/>B/) | "A7" (A/>B/)(c/>d/) (e/>f/)(g/>e/) |
"D" d(A/>a/) f(d/>f/) | "D" (A/>d/)(d/>f/) (f/<a/)(d/>c/) | "G" B(G/>d/) "A7" (c/<a/)(g/>e/) | "D" d2{d} d2 :|
f/>g/ | "D" a/>f/d/<f/ A/>d/d/<f/ | "D" (A/>B/)(d/>e/) f(e/>f/) | "A7" g/>e/c/>e/ A/>e/c/<e/ | "A7" g/>A/c/<e/ g(f/>g/)  |
"D" a/>f/d/<f/ A/>d/d/<f/ | "D" (A/>B/)(d/>e/) (f/>e/)(d/>c/) | "G" B(G/>d/) "A7" (c/<a/)(g/>e/) | "D" {c}d2{d} d :|

